X:383
T:Within a Mile of Dublin
Z: id:dc-reel-354
M:C
L:1/8
K:D Mixolydian
FG|ADD2 FEFG|ADD2 c2dc|ADD2 FEFG|ABcA G2:|!
FG|Addc AGFG|Adde fdec|Addc AGFG|ABcA G2FG|!
Addc AGFG|Adde f3g|afge fde^c|dcAF G2|]!